X: 2127
T: Özledim Gel Diye...
C: Ömer Sami Güpgüp
O: Turkey
F: http://compmusic.upf.edu/node/140
N: huzzam--sarki--semai--ozledim_gel--omer_sami_gupgup
N: makam= huzzam
N: form= sarki
N: usul= semai = 3/4
M: 3/4
L: 1/16
K: C _1/4B _3/4e ^3/4f 
Q: 1/4=132
%%MIDI tuningsystem comma53
d4 _2/4e4 f4  | b12  | c'4 a4 g4  | b12  | \
w:  ARANAĞME  |   |   |   | 
a4 g4 a4  | g4 f4 g4  | f12  | g2f2 _2/4e2d2 e4  | \
w:   |   |   |   | 
_2/4e4 d4 e4  | 
w:   | 
d4 c4 B4  | c12  | _2/4e2d2 c2B2 c4  | B4 d8  | \
w:   |   |   |   | 
d4 c4 B4  | B12  | a2g2 f2_2/4e2 d4  | d4 _2/4e4 f4  | 
w:   |   |   |  ARANAĞME  | 
b12  | c'4 a4 g4  | b12  | a4 g4 a4  | g4 f4 g4  | f12  | \
w:   |   |   |   |   |   | 
g2f2 _2/4e2d2 e4  | _2/4e4 d4 e4  | d4 c4 B4  | 
w:   |   |   | 
c12  | _2/4e2d2 c2B2 c4  | B4 d8  | d4 c4 B4  | B12  | \
w:   |   |   |   |   | 
d2c2 B2^A2 B4  | B8 c4  | d12  | d8 B4  | 
w:   |  Öz le  |  dim   |  gel  di  | 
d12  | d4 _2/4e8  | _2/4e2d2 c4 d4  | B12  | \
w:  ye   |  ha ber   |  yol *  *  la  |  dım    | 
_2/4e2d2 c2d2 B4  | B4 B4 c4  | d12  | d8 d4  | d12  | \
w:  SAZ  |  Ge le  |  mez   |  mev sim   |  kış   | 
d4 _2/4e4 f4  | 
w:  yol *  lar   | 
g4 f2_2/4e2 e4  | d12  | d2c2 B2^A2 B4  | \
w:  u zak  |  mış    |  SAZ  | 
B8 c4  | d12  | d8 B4  | d12  | d4 _2/4e8  | _2/4e2d2 c4 d4  | 
w:  Öz le  |  dim   |  gel  di  |  ye   |  ha ber   |  yol *  *  la  | 
B12  | _2/4e2d2 c2d2 B4  | B4 B4 c4  | d12  | \
w:  dım    |  SAZ  |  Ge le  |  mez   | 
d8 d4  | d12  | d4 _2/4e4 f4  | g4 f2_2/4e2 e4  | d12  | 
w:  mev sim   |  kış   |  yol *  lar   |  u zak  |  mış    | 
a2g2 f2_2/4e2 d4  | d4 _2/4e4 f4  | g12  | \
w:   |  Ne  ya  |  zık   | 
a4 g4 f4  | g12  | g8 a4  | g2f2 _2/4e4 f4  | _1/4e12  | \
w:  sev *  gi  |  lim   |  çok  geç   |  an *  *  la  |  dım    | 
_b2a2 g2f2 g4  | 
w:  SAZ  | 
g4 g8  | _b12  | c'4 a4 g4  | _b12  | a4 g4 a4  | \
w:  O  gü  |  len   |  göz *  le  |  rin   |  aş *  ka   | 
g4 f4 g4  | f12  | g2f2 _2/4e2d2 e4  | _2/4e4 d4 e4  | 
w:  tu zak  |  mış    |  SAZ  |  Ya ra lı   | 
d2c2 c2c2 B4  | c12  | c12  | B4 d8  | d4 c8  | B12  | \
w:  gön *  *  *  lü  |  me   |   |  aş kın   |  ya sak  |  mış    | 
a2g2 f2_2/4e2 d4  | d4 _2/4e4 f4  | g12  | 
w:  SAZ  |  Ne  ya  |  zık   | 
a4 g4 f4  | g12  | g8 a4  | g2f2 _2/4e4 f4  | _1/4e12  | \
w:  sev *  gi  |  lim   |  çok  geç   |  an *  *  la  |  dım    | 
_b2a2 g2f2 g4  | g4 g8  | _b12  | c'4 a4 g4  | 
w:  SAZ  |  O  gü  |  len   |  göz *  le  | 
_b12  | a4 g4 a4  | g4 f4 g4  | f12  | g2f2 _2/4e2d2 e4  | \
w:  rin   |  aş *  ka   |  tu zak  |  mış    |  SAZ  | 
_2/4e4 d4 e4  | d2c2 c2c2 B4  | 
w:  Ya ra lı   |  gön *  *  *  lü  | 
c12  | c12  | B4 d8  | d4 c8  | B12  | d2c2 B2^A2 B4  | \
w:  me   |   |  aş kın   |  ya sak  |  mış    |   | 
d4 _2/4e4 f4  | b12  | c'4 a4 g4  | b12  | \
w:  ARANAĞME  |   |   |   | 
a4 g4 a4  | 
w:   | 
g4 f4 g4  | f12  | g2f2 _2/4e2d2 e4  | _2/4e4 d4 e4  | \
w:   |   |   |   | 
d4 c4 B4  | c12  | _2/4e2d2 c2B2 c4  | 
w:   |   |   | 
B4 d8  | d4 c4 B4  | B12  | a2g2 f2_2/4e2 d4  | \
w:   |   |   |   | 
d4 _2/4e4 f4  | b12  | c'4 a4 g4  | b12  | \
w:  ARANAĞME  |   |   |   | 
a4 g4 a4  | 
w:   | 
g4 f4 g4  | f12  | g2f2 _2/4e2d2 e4  | _2/4e4 d4 e4  | \
w:   |   |   |   | 
d4 c4 B4  | c12  | _2/4e2d2 c2B2 c4  | 
w:   |   |   | 
B4 d8  | d4 c4 B4  | B12  | d2c2 B2^A2 B4  | \
w:   |   |   |   | 
B8 c4  | d12  | d4 d4 B4  | d12  | d8 _2/4e4  | \
w:  Gön lü  |  nün   |  i çin  |  de   |  aş kı   | 
_2/4e2d2 c4 d4  | 
w:  var  *  *  sa  | 
B12  | _2/4e2d2 c2d2 B4  | B4 B4 c4  | d12  | \
w:  yıp    |  SAZ  |  Ya şan  |  mış   | 
d8 d4  | d12  | d4 _2/4e4 f4  | g4 f2_2/4e2 e4  | d12  | 
w:  on ca   |  yıl   |  ko ca   |  bir  *  *  ka  |  yıp    | 
d2c2 B2^A2 B4  | B8 c4  | d12  | d4 d4 B4  | d12  | \
w:  SAZ  |  Gön lü  |  nün   |  i çin  |  de   | 
d8 _2/4e4  | _2/4e2d2 c4 d4  | B12  | _2/4e2d2 c2d2 B4  | 
w:  aş kı   |  var  *  *  sa  |  yıp    |  SAZ  | 
B4 B4 c4  | d12  | d8 d4  | d12  | d4 _2/4e4 f4  | \
w:  Ya şan  |  mış   |  on ca   |  yıl   |  ko ca   | 
g4 f2_2/4e2 e4  | d12  | a2g2 f2_2/4e2 d4  | \
w:  bir  *  *  ka  |  yıp    |   | 
d4 _2/4e4 f4  | 
w:  Her  *  ge  | 
g12  | a4 g4 f4  | g12  | g4 g4 a4  | g2f2 _2/4e4 f4  | _1/4e12  | \
w:  ce   |  sev *  giy  |  le   |  ba şı  |  mı  *  *  ko  |  yup    | 
_b2a2 g2f2 g4  | g8 g4  | _b12  | 
w:  SAZ  |  Yat tı  |  ğım   | 
c'4 a4 g4  | _b12  | a4 g4 a4  | g4 f4 g4  | f12  | \
w:  diz *  le  |  rin   |  aş *  ka   |  tu zak  |  mış    | 
g2f2 _2/4e2d2 e4  | _2/4e4 d4 e4  | d2c2 c2c2 B4  | 
w:  SAZ  |  Ya ra lı   |  gön *  *  *  lü  | 
c12  | c12  | B4 d8  | d4 c8  | B12  | a2g2 f2_2/4e2 d4  | \
w:  me   |   |  aş kın   |  ya sak  |  mış    |  SAZ  | 
d4 _2/4e4 f4  | g12  | a4 g4 f4  | g12  | g4 g4 a4  | 
w:  Her  *  ge  |  ce   |  sev *  giy  |  le   |  ba şı  | 
g2f2 _2/4e4 f4  | _1/4e12  | _b2a2 g2f2 g4  | \
w:  mı  *  *  ko  |  yup    |  SAZ  | 
g8 g4  | _b12  | c'4 a4 g4  | _b12  | a4 g4 a4  | \
w:  Yat tı  |  ğım   |  diz *  le  |  rin   |  aş *  ka   | 
g4 f4 g4  | 
w:  tu zak  | 
f12  | g2f2 _2/4e2d2 e4  | _2/4e4 d4 e4  | \
w:  mış    |  SAZ  |  Ya ra lı   | 
d2c2 c2c2 B4  | c12  | c12  | B4 d8  | d4 c8  | B12  | 
w:  gön *  *  *  lü  |  me   |   |  aş kın   |  ya sak  |  mış    | 
d2c2 B2^A2 B4  | |


